public/assets/icons/home/quote.svg

<svg xmlns="http://www.w3.org/2000/svg"
     viewBox="300 270 400 40" preserveAspectRatio="xMidYMid meet" version="1.0">
    <defs>
        <clipPath id="81ae0ee9c3">
            <path d="M 471 277.273438 L 492 277.273438 L 492 307 L 471 307 Z M 471 277.273438 " clip-rule="nonzero"/>
        </clipPath>
        <clipPath id="8d1d999818">
            <path d="M 471 277.273438 L 492 277.273438 L 492 307.273438 L 471 307.273438 Z M 471 277.273438 "
                  clip-rule="nonzero"/>
        </clipPath>
        <clipPath id="42f510bb5f">
            <path d="M 501 277.273438 L 521 277.273438 L 521 307 L 501 307 Z M 501 277.273438 " clip-rule="nonzero"/>
        </clipPath>
        <clipPath id="c1d2533f96">
            <path d="M 500 277.273438 L 521 277.273438 L 521 307.273438 L 500 307.273438 Z M 500 277.273438 "
                  clip-rule="nonzero"/>
        </clipPath>
        <clipPath id="49a1626def">
            <path d="M 304.210938 291 L 449 291 L 449 294 L 304.210938 294 Z M 304.210938 291 " clip-rule="nonzero"/>
        </clipPath>
    </defs>
    <g clip-path="url(#81ae0ee9c3)">
        <path fill="#225378"
              d="M 491.230469 287.222656 L 491.230469 297.074219 C 491.230469 299.75 490.144531 302.171875 488.390625 303.921875 C 486.640625 305.675781 484.21875 306.761719 481.542969 306.761719 L 481.542969 296.914062 C 476.191406 296.914062 471.855469 292.574219 471.855469 287.222656 C 471.855469 281.871094 476.191406 277.535156 481.542969 277.535156 C 486.894531 277.535156 491.230469 281.875 491.230469 287.222656 Z M 491.230469 287.222656 "
              fill-opacity="1" fill-rule="nonzero"/>
    </g>
    <g clip-path="url(#8d1d999818)">
        <path fill="#225378"
              d="M 481.542969 307.023438 L 481.277344 307.023438 L 481.277344 297.171875 C 475.914062 297.03125 471.589844 292.625 471.589844 287.222656 C 471.589844 281.824219 476.054688 277.273438 481.542969 277.273438 C 487.027344 277.273438 491.492188 281.738281 491.492188 287.222656 L 491.492188 297.074219 C 491.492188 299.730469 490.457031 302.230469 488.578125 304.109375 C 486.699219 305.988281 484.199219 307.023438 481.542969 307.023438 Z M 481.542969 277.800781 C 476.34375 277.800781 472.117188 282.027344 472.117188 287.222656 C 472.117188 292.421875 476.34375 296.648438 481.542969 296.648438 L 481.804688 296.648438 L 481.804688 306.496094 C 484.222656 306.429688 486.488281 305.457031 488.207031 303.738281 C 489.984375 301.957031 490.964844 299.589844 490.964844 297.074219 L 490.964844 287.222656 C 490.964844 282.027344 486.738281 277.800781 481.542969 277.800781 Z M 481.542969 277.800781 "
              fill-opacity="1" fill-rule="nonzero"/>
    </g>
    <g clip-path="url(#42f510bb5f)">
        <path fill="#225378"
              d="M 520.570312 287.222656 L 520.570312 297.074219 C 520.570312 299.75 519.484375 302.171875 517.730469 303.921875 C 515.980469 305.675781 513.558594 306.761719 510.882812 306.761719 L 510.882812 296.914062 C 505.53125 296.914062 501.195312 292.574219 501.195312 287.222656 C 501.195312 281.871094 505.53125 277.535156 510.882812 277.535156 C 516.234375 277.535156 520.570312 281.875 520.570312 287.222656 Z M 520.570312 287.222656 "
              fill-opacity="1" fill-rule="nonzero"/>
    </g>
    <g clip-path="url(#c1d2533f96)">
        <path fill="#225378"
              d="M 510.882812 307.023438 L 510.617188 307.023438 L 510.617188 297.171875 C 505.253906 297.03125 500.929688 292.625 500.929688 287.222656 C 500.929688 281.824219 505.394531 277.273438 510.882812 277.273438 C 516.371094 277.273438 520.832031 281.738281 520.832031 287.222656 L 520.832031 297.074219 C 520.832031 299.730469 519.796875 302.230469 517.917969 304.109375 C 516.039062 305.988281 513.539062 307.023438 510.882812 307.023438 Z M 510.882812 277.800781 C 505.683594 277.800781 501.457031 282.027344 501.457031 287.222656 C 501.457031 292.421875 505.683594 296.648438 510.882812 296.648438 L 511.144531 296.648438 L 511.144531 306.496094 C 513.566406 306.429688 515.828125 305.457031 517.546875 303.738281 C 519.324219 301.957031 520.304688 299.589844 520.304688 297.074219 L 520.304688 287.222656 C 520.304688 282.027344 516.078125 277.800781 510.882812 277.800781 Z M 510.882812 277.800781 "
              fill-opacity="1" fill-rule="nonzero"/>
    </g>
    <path fill="#225378"
          d="M 543.535156 291.09375 L 687.558594 291.09375 L 687.558594 293.203125 L 543.535156 293.203125 Z M 543.535156 291.09375 "
          fill-opacity="1" fill-rule="nonzero"/>
    <g clip-path="url(#49a1626def)">
        <path fill="#225378"
              d="M 304.863281 291.09375 L 448.886719 291.09375 L 448.886719 293.203125 L 304.863281 293.203125 Z M 304.863281 291.09375 "
              fill-opacity="1" fill-rule="nonzero"/>
    </g>
</svg>

<svg xmlns="http://www.w3.org/2000/svg" version="1.0" viewBox="300 270 400 40">
    <defs>
        <clipPath id="a">
            <path d="M471 277.27h21V307h-21Zm0 0"/>
        </clipPath>
        <clipPath id="b">
            <path d="M471 277.27h21v30h-21Zm0 0"/>
        </clipPath>
        <clipPath id="c">
            <path d="M501 277.27h20V307h-20Zm0 0"/>
        </clipPath>
        <clipPath id="d">
            <path d="M500 277.27h21v30h-21Zm0 0"/>
        </clipPath>
        <clipPath id="e">
            <path d="M304.21 291H449v3H304.21Zm0 0"/>
        </clipPath>
    </defs>
    <g clip-path="url(#a)">
        <path fill="#225378" d="M491.23 287.22v9.85c0 2.68-1.09 5.1-2.84 6.85a9.64 9.64 0 0 1-6.85 2.84v-9.85a9.69 9.69 0 1 1 9.69-9.69Zm0 0"/>
    </g>
    <g clip-path="url(#b)">
        <path fill="#225378" d="M481.54 307.02h-.26v-9.85a9.96 9.96 0 0 1-9.69-9.95c0-5.4 4.46-9.95 9.95-9.95a9.96 9.96 0 0 1 9.95 9.95v9.85a9.89 9.89 0 0 1-2.91 7.04 9.89 9.89 0 0 1-7.04 2.91Zm0-29.22a9.43 9.43 0 0 0 0 18.85h.26v9.85a9.36 9.36 0 0 0 6.4-2.76 9.38 9.38 0 0 0 2.76-6.67v-9.85c0-5.2-4.22-9.42-9.42-9.42Zm0 0"/>
    </g>
    <g clip-path="url(#c)">
        <path fill="#225378" d="M520.57 287.22v9.85c0 2.68-1.09 5.1-2.84 6.85a9.64 9.64 0 0 1-6.85 2.84v-9.85a9.69 9.69 0 1 1 9.69-9.69Zm0 0"/>
    </g>
    <g clip-path="url(#d)">
        <path fill="#225378" d="M510.88 307.02h-.26v-9.85a9.96 9.96 0 0 1-9.69-9.95c0-5.4 4.46-9.95 9.95-9.95a9.96 9.96 0 0 1 9.95 9.95v9.85a9.89 9.89 0 0 1-2.91 7.04 9.89 9.89 0 0 1-7.04 2.91Zm0-29.22a9.43 9.43 0 0 0 0 18.85h.26v9.85a9.36 9.36 0 0 0 6.4-2.76 9.38 9.38 0 0 0 2.76-6.67v-9.85c0-5.2-4.22-9.42-9.42-9.42Zm0 0"/>
    </g>
    <path fill="#225378" d="M543.54 291.1h144.02v2.1H543.54Zm0 0"/>
    <g clip-path="url(#e)">
        <path fill="#225378" d="M304.86 291.1H448.9v2.1H304.86Zm0 0"/>
    </g>
</svg>
